!!!OTL: MIR BLUEHET KEIN FRUEHLING
!!!ARE: Europa, Mitteleuropa, Deutschland, Thueringen
!!!SCT: B0472
!!!YEM: Copyright 1995, estate of Helmut Schaffrath.
**kern
*ICvox
*Ivox
*M4/4
*k[f#]
*G:
{4d
=1
2b
8cc
8b
8a
8g
=2
8f#
8a
4cc
4r}
{4d
=3
2cc
8dd
8cc
8b
8a
=4
8g
8b
4dd
4r}
{4g
=5
8g
8ee
2ee
4dd
=6
8dd
8cc#
4cc
4r}
{4cc
=7
4.b
8dd
8dd
8cc
8b
8a
=8
4a
4g
4r}
==
!!!AGN: Liebes - Lied, Leid, Klage
!!!ONB: ESAC (Essen Associative Code) Database: BOEHME
!!!AMT: simple quadruple
!!!AIN: vox
!!!EED: Helmut Schaffrath
!!!EEV: 1.0
*-
